_assets/images/gallery/s06e08-02.svg

<svg xmlns="http://www.w3.org/2000/svg" width="500" height="550" viewBox="0 0 500 550"><path d="M372.14 291.55q-.27 61.74-.62 123.47c-.81 9-2.68 16.4-3.55 25.44-1 10.07 1.34 17-1.5 25.63-.59 1.77-2 1.67-3.35 1.44-44.59-7.74-101.66-5.72-146.65-2.93-24.6.58-58.62-1.67-83 2.09-5.23.6-5.68.28-6.62-4.82-1.35-11.26 1.44-20 0-30.81-6.15-46.82-.89-92.88-3.1-140-1.42 2.82-2.94 5.6-4.29 8.46-2.37 10.67-17.5 9.3-11.81 16.18 11.11 7.95 6.41 21.38 5.15 32.56-.25 3.15-1.35 6.27-.37 9.58.51 8.43-3.19 16.94-4.38 25.31-1.5 8-2.61 15.83-1.54 23.93a5.1 5.1 0 01-1.13 3.3c-5.71 6.28-7.75 14-9.19 22.06-.57 3.18-.61 3-3.74 2-12.38-3.52-26.09-4.38-38.6-1.18-1.39.34-2.11 0-2.41-1.47-2-7.76-2.18-16.67-8.49-22.43a6.66 6.66 0 01-1.33-3.22A144.46 144.46 0 0139 372.86c-1.91-63 2.6-126.93 26.19-186 13.61-35.43 24.56-73.32 48.07-103.67 27.32-18.2 60-23.76 90.46-34.78a3.16 3.16 0 012.72.43c5 5.55 11.46 8.41 18.56 9.67 19.19 2.43 41.29 5.55 58.65-4.88 2.85-1.27 4.2-6.53 7.87-5 29.12 10.49 61 14.4 87.44 31.58 15.94 14.59 21.63 38 30.45 57.21 27.81 67.48 58 137.39 51.05 212.07-1.19 18.66-.23 37.46-3.28 56-.49 4.66-5.21 7.09-5.56 11.78-1.22 5.28-2.08 10.65-2.91 16-.4 2.6-.41 2.83-3.08 2.33-12.48-2.66-25.26-5.49-37.8-1.58-8.34-.15-8.13-15.56-11.44-21.41-6.28-7.36-3.61-9-5.33-17.63-.9-9.7-4.68-20.27.79-29.26 2-3.53 1.86-7.05.51-10.66-4.9-11.29-7.4-23.42-10.45-35.29-1.07-4.31-1.31-8.5 1.61-12.34 1.49-7.15-10.43-8.7-10.93-15.93z" fill="#cececc" stroke="#262521" stroke-linecap="round" stroke-linejoin="round" stroke-width="3"/><path d="M204.54 51.38c.8-.26 4.44 39.77 42.44 41.81s45.37-41.58 45.37-41.58" fill="none" stroke="#636363" stroke-linecap="round" stroke-linejoin="round"/><path d="M73.89 403.5v20.47m-9.65-20.45l.99 20.43m19.15-20.42l-1.48 20.41m11.59-18.25l-4.14 20.04m-35-20.83l2.04 20.36M424.82 402.38v20.46m-10.11-20.41l1.9 20.37m18.69-20.39l-1.48 20.41m11.59-18.25l-4.14 20.04m-36.39-20.7l3.82 20.1M247.31 430.54v26.73m11.06-26.73v26.21m11.06-26.21v26.23m11.06-26.23v26.21m11.07-26.71v26.73m11.06-26.73v26.23m11.55-26.23l.56 26.71m10.01-26.21v26.73m-153.87-26.73V458M192 430.54v27.68m-10.84-27.68v27.52m21.9-26.52v27.18m-66.95-26.17l1.5 26.82m9.44-28.31l.7 27.16m11.56-27.68v27.68m54.81-26.68v26.68m11.06-26.68v25.68m11.06-26.68v26.73m99.93-25.72L335.12 458m12.36-25.44l-1.85 26.16m12.71-25.17l-1.08 26.66M293.56 65.06l7.14 1.86m-5.04-10.31l7.93 2.07m-55.92 40.27v8.79m9.62-9.52l.44 8.63m8.07-11.32l1.46 8.6m5.65-12.43l3 7.84m3.68-12.87l4.38 6.44m1.2-12.75l5.84 4.44m-1.62-11.58l7.02 3.05m-94.63-11.21l-6.94 1.81m4.84-10.26l-7.65 1.99m46.02 39.62l-.45 8.64m-8.06-11.33l-1.46 8.6m-5.65-12.43l-3 7.84m-3.69-12.87l-4.37 6.44m-1.2-12.75l-5.76 4.37m1.54-11.51l-6.87 2.98" opacity=".5" fill="none" stroke="#636363" stroke-linecap="round" stroke-linejoin="round" stroke-width="2"/><path d="M121.2 171.92s3 37.54.91 53.17.11 29.69.11 32.87 1.89 33.04 1.89 33.04m247.42-125s5.9 70 .11 98l1 27.47" fill="none" stroke="#262521" stroke-linecap="round" stroke-linejoin="round" stroke-width="3"/></svg>

<svg xmlns="http://www.w3.org/2000/svg" width="500" height="550" viewBox="0 0 500 550"><path d="M372.14 291.55q-.27 61.74-.62 123.47c-.81 9-2.68 16.4-3.55 25.44-1 10.07 1.34 17-1.5 25.63-.59 1.77-2 1.67-3.35 1.44-44.59-7.74-101.66-5.72-146.65-2.93-24.6.58-58.62-1.67-83 2.09-5.23.6-5.68.28-6.62-4.82-1.35-11.26 1.44-20 0-30.81-6.15-46.82-.89-92.88-3.1-140-1.42 2.82-2.94 5.6-4.29 8.46-2.37 10.67-17.5 9.3-11.81 16.18 11.11 7.95 6.41 21.38 5.15 32.56-.25 3.15-1.35 6.27-.37 9.58.51 8.43-3.19 16.94-4.38 25.31-1.5 8-2.61 15.83-1.54 23.93a5.1 5.1 0 01-1.13 3.3c-5.71 6.28-7.75 14-9.19 22.06-.57 3.18-.61 3-3.74 2-12.38-3.52-26.09-4.38-38.6-1.18-1.39.34-2.11 0-2.41-1.47-2-7.76-2.18-16.67-8.49-22.43a6.66 6.66 0 01-1.33-3.22A144.46 144.46 0 0139 372.86c-1.91-63 2.6-126.93 26.19-186 13.61-35.43 24.56-73.32 48.07-103.67 27.32-18.2 60-23.76 90.46-34.78a3.16 3.16 0 012.72.43c5 5.55 11.46 8.41 18.56 9.67 19.19 2.43 41.29 5.55 58.65-4.88 2.85-1.27 4.2-6.53 7.87-5 29.12 10.49 61 14.4 87.44 31.58 15.94 14.59 21.63 38 30.45 57.21 27.81 67.48 58 137.39 51.05 212.07-1.19 18.66-.23 37.46-3.28 56-.49 4.66-5.21 7.09-5.56 11.78-1.22 5.28-2.08 10.65-2.91 16-.4 2.6-.41 2.83-3.08 2.33-12.48-2.66-25.26-5.49-37.8-1.58-8.34-.15-8.13-15.56-11.44-21.41-6.28-7.36-3.61-9-5.33-17.63-.9-9.7-4.68-20.27.79-29.26 2-3.53 1.86-7.05.51-10.66-4.9-11.29-7.4-23.42-10.45-35.29-1.07-4.31-1.31-8.5 1.61-12.34 1.49-7.15-10.43-8.7-10.93-15.93z" fill="#cececc" stroke="#262521" stroke-linecap="round" stroke-linejoin="round" stroke-width="3"/><path d="M204.54 51.38c.8-.26 4.44 39.77 42.44 41.81s45.37-41.58 45.37-41.58" fill="none" stroke="#636363" stroke-linecap="round" stroke-linejoin="round"/><g opacity=".5" fill="none" stroke="#636363" stroke-linecap="round" stroke-linejoin="round" stroke-width="2"><path d="M73.89 403.5v20.47M64.24 403.52l.99 20.43M84.38 403.53l-1.48 20.41M94.49 405.69l-4.14 20.04M55.35 404.9l2.04 20.36"/></g><g opacity=".5" fill="none" stroke="#636363" stroke-linecap="round" stroke-linejoin="round" stroke-width="2"><path d="M424.82 402.38v20.46M414.71 402.43l1.9 20.37M435.3 402.41l-1.48 20.41M445.41 404.57l-4.14 20.04M404.88 403.91l3.82 20.1"/></g><g opacity=".5" fill="none" stroke="#636363" stroke-linecap="round" stroke-linejoin="round" stroke-width="2"><path d="M247.31 430.54v26.73M258.37 430.54v26.21M269.43 430.54v26.23M280.49 430.54v26.21M291.56 430.04v26.73M302.62 430.04v26.23M314.17 430.04l.56 26.71M324.74 430.54v26.73M170.87 430.54V458M192 430.54v27.68M181.16 430.54v27.52M203.06 431.54v27.18M136.11 432.55l1.5 26.82M147.05 431.06l.7 27.16M159.31 430.54v27.68M214.12 431.54v26.68M225.18 431.54v25.68M236.24 430.54v26.73M336.17 431.55L335.12 458M347.48 432.56l-1.85 26.16M358.34 433.55l-1.08 26.66"/></g><g opacity=".5" fill="none" stroke="#636363" stroke-linecap="round" stroke-linejoin="round" stroke-width="2"><path d="M293.56 65.06l7.14 1.86M295.66 56.61l7.93 2.07M247.67 98.95v8.79M257.29 98.22l.44 8.63M265.8 95.53l1.46 8.6M272.91 91.7l3 7.84M279.59 86.67l4.38 6.44M285.17 80.36l5.84 4.44M289.39 73.22l7.02 3.05M201.78 65.06l-6.94 1.81M199.68 56.61l-7.65 1.99M238.05 98.22l-.45 8.64M229.54 95.53l-1.46 8.6M222.43 91.7l-3 7.84M215.74 86.67l-4.37 6.44M210.17 80.36l-5.76 4.37M205.95 73.22l-6.87 2.98"/></g><path d="M121.2 171.92s3 37.54.91 53.17.11 29.69.11 32.87 1.89 33.04 1.89 33.04M371.53 166s5.9 70 .11 98l1 27.47" fill="none" stroke="#262521" stroke-linecap="round" stroke-linejoin="round" stroke-width="3"/></svg>
